X:1
T:St. Swithin, 66.66.88
T:St. Swithin, 66.66.88
T:Attributed to Edward Jesser, 1789
T:Public Domain Courtesy of the Cyber Hymnal™
C:Attributed to Edward Jesser, 1789
Z:Public Domain
Z:Courtesy of the Cyber Hymnal™
%%score ( 1 2 ) ( 3 4 )
L:1/8
Q:1/4=115
M:3/4
K:Eb
V:1 treble 
V:2 treble 
V:3 bass 
V:4 bass 
V:1
 [B,E]2 | ([EB]2 [DA]2) [EG]2 | [Ec]4 [Fd]2 | [Ge]4 [Fd]2 | (c2 B2) [DA]2 | ([EG]2 F2) [CE]2 | %6
 [DB]4 [FB]2 | ([EG]2 [DF]2) [B,E]2 | (B2 c2) [Ad]2 | [Ge]4 [Fd]2 | (G2 =A2) [DB]2 | %11
 ([Gc]2 [Fd]2) [Ec]2 | [DB]4 [FB]2 | (e2 B2) [DA]2 | [EG]4 [Ec]2 | ([EB]2 [DA]2) [EG]2 | [DF]4 E2 | %17
 (B2 c2) [Fd]2 | (e2 B2) [EG]2 | ([FA]2 [EG]2) [DF]2 | E2 x2 |] %21
V:2
 x2 | x6 | x6 | x6 | E4 x2 | x2 F2 x2 | x6 | x6 | E4 x2 | x6 | E4 x2 | x6 | x6 | E4 x2 | x6 | x6 | %16
 x4 E2 | E4 x2 | G4 x2 | x6 | E2 x2 |] %21
V:3
 [E,G,]2 | B,4 [E,B,]2 | [A,C]4 [F,B,]2 | [E,B,]4 [G,=B,]2 | ([A,C]2 [G,E]2) [F,B,]2 | %5
 B,4 [C,=A,]2 | [B,,B,]4 [B,,D]2 | ([E,B,]2 [F,A,]2) G,2 | ([G,B,]2 A,2) [F,B,]2 | %9
 [E,B,]4 [B,,B,]2 | ([E,B,]2 [C,C]2) [B,,F,]2 | (CB, [F,B,]2) [F,,=A,]2 | [B,,B,]4 [A,D]2 | %13
 (E2 G,2) [F,A,]2 | (B,2 G,2) A,2 | B,4 [E,B,]2 | [B,,B,]4 [E,G,]2 | ([G,B,]2 A,2) [F,A,]2 | %18
 [E,B,]4 [E,B,]2 | ([A,,C]2 [B,,B,]2) [B,,A,]2 | [E,G,]4 |] %21
V:4
 x2 | (G,2 F,2) x2 | x6 | x6 | x6 | (E,2 D,2) x2 | x6 | x4 G,2 | x2 A,2 x2 | x6 | x6 | E,2 x4 | %12
 x6 | G,4 x2 | E,4 A,2 | (G,2 F,2) x2 | x6 | x2 A,2 x2 | x6 | x6 | x4 |] %21

